svg/OSM-icons/leisure #21610b °ffffff !label=enleisure,deFreizeit/21005;leisure=climbing;!name=;#sport=climbing;[climbing];!label=enclimbing,deKlettern.svg

<svg xmlns="http://www.w3.org/2000/svg" viewBox="0 0 580 580" enable-background="new 0 0 580 580"><path fill="#111" stroke="#eee" stroke-width="3.408" d="m66.28 1.768c-41.34 0-64.57 21.371-64.57 65.04v450.12c0 40.844 20.894 62.23 62.19 62.23h452.02c41.31 0 62.23-20.316 62.23-62.23v-450.12c0-42.601-20.923-65.04-63.52-65.04-.003 0-448.49-.143-448.35 0z"/><path fill="#fff" d="m287.38 35.03v35.3l-2.088-.402-13.506 70.09-47.17 16.475c-5.096-7.226-13.298-12.1-22.667-12.673 6.634-1.087 12.747-4.204 17.588-9.06 6.098-6.111 9.45-14.231 9.44-22.935-.019-17.802-14.518-32.29-32.356-32.29-8.634.001-16.747 3.381-22.844 9.492s-9.45 14.232-9.44 22.937c.018 17.22 13.585 31.33 30.586 32.24-14.1 2.449-24.835 14.742-24.835 29.548v111.74c0 8.805 3.793 16.724 9.835 22.21l49.979 49.641-36.03 186.97 10.433 2.01 34.678-179.96 48.39 48.06v129.67h128.28v-509.07h-128.28m0 99.54l-3.994 1.395 3.994-20.726v19.331m-57.37 152.98c.046-.681.078-1.366.078-2.059v-107.61l36.88-12.882-26.477 137.4-10.481-14.846m18.98 26.885l29.577-153.49 8.809-3.077v210.94l-38.39-54.37"/></svg>

<?xml version="1.0" encoding="utf-8"?>
<!-- Generator: Adobe Illustrator 15.0.0, SVG Export Plug-In . SVG Version: 6.00 Build 0)  -->
<!DOCTYPE svg PUBLIC "-//W3C//DTD SVG 1.1//EN" "http://www.w3.org/Graphics/SVG/1.1/DTD/svg11.dtd">
<svg version="1.1" xmlns="http://www.w3.org/2000/svg" xmlns:xlink="http://www.w3.org/1999/xlink" x="0px" y="0px" width="580px"
	 height="580px" viewBox="0 0 580 580" enable-background="new 0 0 580 580" xml:space="preserve">
<g id="Layer_2">
	<g id="g1327">
		<path id="path1329" fill="#111111" stroke="#EEEEEE" stroke-width="3.408" d="M66.275,1.768
			c-41.335,0-64.571,21.371-64.571,65.036v450.123c0,40.844,20.894,62.229,62.192,62.229H515.92
			c41.307,0,62.229-20.316,62.229-62.229V66.804c0-42.601-20.923-65.036-63.522-65.036C514.624,1.768,66.133,1.625,66.275,1.768z"/>
	</g>
</g>
<g id="svg2" inkscape:output_extension="org.inkscape.output.svg.inkscape" inkscape:version="0.46" sodipodi:docname="waste_bin.svg" sodipodi:version="0.32" xmlns:inkscape="http://www.inkscape.org/namespaces/inkscape" xmlns:rdf="http://www.w3.org/1999/02/22-rdf-syntax-ns#" xmlns:svg="http://www.w3.org/2000/svg" xmlns:sodipodi="http://sodipodi.sourceforge.net/DTD/sodipodi-0.dtd" xmlns:cc="http://creativecommons.org/ns#" xmlns:dc="http://purl.org/dc/elements/1.1/">
	<path fill="#FFFFFF" d="M287.378,35.035v35.303l-2.088-0.402l-13.506,70.087l-47.166,16.475
		c-5.096-7.226-13.298-12.1-22.667-12.673c6.634-1.087,12.747-4.204,17.588-9.056c6.098-6.111,9.45-14.231,9.44-22.935
		c-0.019-17.802-14.518-32.286-32.356-32.286c-8.634,0.01-16.747,3.381-22.844,9.492s-9.45,14.232-9.44,22.937
		c0.018,17.22,13.585,31.332,30.586,32.236c-14.105,2.449-24.835,14.742-24.835,29.548V285.5c0,8.805,3.793,16.724,9.835,22.212
		l49.979,49.641l-36.029,186.969l10.433,2.01l34.678-179.959l48.392,48.063v129.671h128.283V35.035H287.378z M287.378,134.576
		l-3.994,1.395l3.994-20.726V134.576z M196.66,143.76L196.66,143.76L196.66,143.76L196.66,143.76z M230.012,287.559
		c0.046-0.681,0.078-1.366,0.078-2.059V177.89l36.88-12.882l-26.477,137.397L230.012,287.559z M248.992,314.444l29.577-153.488
		l8.809-3.077v210.935L248.992,314.444z"/>
</g>
</svg>
